X:33
T:Father Kelly's
S:P. Haverty
M:C|
R:reel
E:7
I:speed 350
K:G
GA|B2 GB AGEG|DGGF GABd|c2AB cBAG|EAAG ABcA|\
B2GB AGEG|DGGFGABc|d2 Bd gdBd|cAFA G2:|*
Bc|d2Bd gdBd|d2 Bd gdBd|e2 ce agfe|defg agfe|\
d2Bd gdBd|d2 Bd gdBd|c2Ac B2 GB|AGFA G2:|**
<end>
<start>
